common/src/main/resources/files/other/aws.svg

<!--
  - The MIT License (MIT)
  -
  - Copyright (c) 2015-2024 Elior "Mallowigi" Boukhobza
  -
  - Permission is hereby granted, free of charge, to any person obtaining a copy
  - of this software and associated documentation files (the "Software"), to deal
  - in the Software without restriction, including without limitation the rights
  - to use, copy, modify, merge, publish, distribute, sublicense, and/or sell
  - copies of the Software, and to permit persons to whom the Software is
  - furnished to do so, subject to the following conditions:
  -
  - The above copyright notice and this permission notice shall be included in all
  - copies or substantial portions of the Software.
  -
  - THE SOFTWARE IS PROVIDED "AS IS", WITHOUT WARRANTY OF ANY KIND, EXPRESS OR
  - IMPLIED, INCLUDING BUT NOT LIMITED TO THE WARRANTIES OF MERCHANTABILITY,
  - FITNESS FOR A PARTICULAR PURPOSE AND NONINFRINGEMENT. IN NO EVENT SHALL THE
  - AUTHORS OR COPYRIGHT HOLDERS BE LIABLE FOR ANY CLAIM, DAMAGES OR OTHER
  - LIABILITY, WHETHER IN AN ACTION OF CONTRACT, TORT OR OTHERWISE, ARISING FROM,
  - OUT OF OR IN CONNECTION WITH THE SOFTWARE OR THE USE OR OTHER DEALINGS IN THE
  - SOFTWARE.
  -->

<svg data-big="true" version="1.1" xmlns="http://www.w3.org/2000/svg" x="0px" y="0px" width="16px" height="16px"
     viewBox="0 0 512 512">
  <path fill="#FBC02D" data-iconColor="aws"
        d="M259.7146301,244.2533264l-81.9879913,35.2151184l75.9353485,32.4642944l88.0406189-32.4642944L259.7146301,244.2533264z M135.0479431,287.8944702l0.0375519,158.8444824l118.5744629,52.8226929V335.042572L135.0479431,287.8944702z M382.9681702,288.2742004l-108.3990479,41.2661133v155.1685181l108.3990479-44.0191956V288.2742004z M124.6301346,18.292799L42.6466293,53.5079346l75.9308548,32.4637299l88.0406342-32.4637299L124.6301346,18.292799z M0,220.7840271L118.5754623,273.60672V109.0876541L0,62.3148079V220.7840271z M247.8836517,62.3136711l-108.3990479,41.2661171v155.1685333l108.3990479-44.0191956V62.3136711z M388.74646,12.4383488l-81.9879761,35.2151413l75.9353333,32.4614868l88.0350342-32.4614868L388.74646,12.4383488z M264.1155396,56.4572754v158.4667053l118.5726624,52.8226929V103.2276077L264.1155396,56.4572754z M512,56.4592209L403.6009521,97.7253342v155.1685486L512,208.8746643V56.4592209z"/>
</svg>

<svg xmlns="http://www.w3.org/2000/svg" width="16" height="16" data-big="true" viewBox="0 0 512 512"><path fill="#FBC02D" d="m259.715 244.253-81.988 35.215 75.935 32.465 88.04-32.465zm-124.667 43.641.037 158.845 118.575 52.823v-164.52zm247.92.38L274.57 329.54V484.71l108.4-44.02zM124.63 18.293 42.647 53.508l75.93 32.464 88.041-32.464zM0 220.784l118.575 52.823v-164.52L0 62.316zm247.884-158.47-108.4 41.266v155.168l108.4-44.019zm140.862-49.876-81.988 35.215 75.936 32.462 88.035-32.462zm-124.63 44.02v158.466l118.572 52.823v-164.52zM512 56.458 403.601 97.725v155.169L512 208.874z" data-iconColor="aws"/></svg>
